X: 73
T: Danshui
L: 1/8
M: 2/4
K: G
e e d B [I:setbarnb 1]| 
d e d B | 
d2e B | 
d4 | 
B> g d B | 
A B A F | 
d G A/ G/ E | 
D4 |]

@@@ Tune index: 8947
